apps-symbolic-unstable/non-symlinks/bluej-symbolic.svg

<svg xmlns="http://www.w3.org/2000/svg" width="16" height="16" version="1.1">
<g fill="#ececec">
 <path   opacity="0.8" d="M 3.594,6.539 C 3.164,6.969 2.771,7.398 1.944,7.775 1.392,8.027 0.788,8.304 0.29,8.715 -0.191,8.996 -0.015,9.452 0.395,9.467 H 3.923 C 3.64,9.73 3.484,6.93 3.594,6.539 Z"/>
 <path   opacity="1.0" d="m 12.134,2.09 q 0.004,-0.014 0.007,-0.027 1.312,0.39 1.172,1.062 c -0.141,0.672 -0.573,0.568 -1.079,0.547 -0.492,-0.086 -0.539,0.832 -0.289,1.336 0.25,0.504 0.43,0.748 0.669,1.02 1.168,1.321 2.255,2.982 3.306,4.523 0.187,0.339 0.035,0.768 -0.321,0.906 0,0 -4.562,1.793 -7.883,2.52 0,0 1.244,-2.2 1.538,-3.41 C 9.332,10.245 9.392,9.862 9.438,9.451 8.781,10.153 8.015,10.754 7.141,11.266 6.391,11.578 6.156,10.875 6.844,10.438 8.406,9.188 8.305,6.441 9.359,4.563 9.371,4.54 9.383,4.518 9.396,4.501 9.022,4.59 7.8,4.933 6.75,4.933 5.933,4.933 4.45,4.29 4.45,4.29 4.934,3.448 5.599,2.715 6.664,2.145 7.477,1.764 8.396,1.525 9.29,1.467 v 0 c 0.758,0.006 1.572,0.188 2.291,0.403 0.171,0.051 0.357,0.107 0.543,0.171 0.005,0.015 0.008,0.031 0.01,0.049 z"/>
 <path   opacity="0.6" d="M 4.523,4.164 C 4.224,4.687 3.797,5.516 3.702,6.253 3.652,6.377 3.599,6.488 3.543,6.594 3.477,7.386 3.522,8.554 3.798,9.467 h 0.125 c 0.052,0.218 0.105,0.513 0.163,0.748 0.145,0.603 0.191,1.103 0.105,1.568 -0.003,0.037 -0.002,0.076 -0.006,0.113 -0.024,0.232 -0.078,0.455 -0.166,0.673 -0.089,0.218 -0.213,0.43 -0.378,0.641 -0.043,0.054 -0.076,0.119 -0.104,0.188 -0.008,0.02 -0.013,0.041 -0.02,0.062 -0.016,0.051 -0.03,0.103 -0.039,0.157 -0.005,0.028 -0.009,0.056 -0.012,0.085 -0.001,0.003 -0.001,0.006 -0.001,0.008 0.033,0.264 0.156,0.492 0.381,0.539 0,0 1.785,0.062 2.648,-0.047 0.425,-0.059 0.83,-0.137 1.322,-0.249 0.336,-0.617 1.205,-2.162 1.438,-3.119 0.108,-0.445 0.174,-0.9 0.226,-1.49 -0.66,0.707 -2.238,1.804 -2.335,1.859 -0.098,0.055 -0.29,0.09 -0.329,0.09 -0.21,0 -0.339,-0.112 -0.339,-0.32 C 6.455,10.799 6.715,10.543 6.969,10.379 8.809,8.661 8.463,5.955 9.422,4.484 9.062,4.569 7.816,4.933 6.75,4.933 6.122,4.933 5.037,4.341 4.523,4.164 Z"/>
 <circle opacity="0.8" cx="6.667" cy="6.533" r=".8"/>
</g>
</svg>

<svg xmlns="http://www.w3.org/2000/svg" width="16" height="16" version="1.1">
 <path fill="#ececec" d="M 3.594 6.539 C 3.164 6.969 2.771 7.398 1.944 7.775 C 1.392 8.027 0.788 8.304 0.29 8.715 C -0.191 8.996 -0.015 9.452 0.395 9.467 L 3.923 9.467 C 3.64 9.73 3.484 6.93 3.594 6.539 Z"/>
 <path fill="#ececec" d="M 12.134 2.09 Q 12.138 2.076 12.141 2.063 Q 13.453 2.453 13.313 3.125 C 13.172 3.797 12.74 3.693 12.234 3.672 C 11.742 3.586 11.695 4.504 11.945 5.008 C 12.195 5.512 12.375 5.756 12.614 6.028 C 13.782 7.349 14.869 9.01 15.92 10.551 C 16.107 10.89 15.955 11.319 15.599 11.457 C 15.599 11.457 11.037 13.25 7.716 13.977 C 7.716 13.977 8.96 11.777 9.254 10.567 C 9.332 10.245 9.392 9.862 9.438 9.451 C 8.781 10.153 8.015 10.754 7.141 11.266 C 6.391 11.578 6.156 10.875 6.844 10.438 C 8.406 9.188 8.305 6.441 9.359 4.563 C 9.371 4.54 9.383 4.518 9.396 4.501 C 9.022 4.59 7.8 4.933 6.75 4.933 C 5.933 4.933 4.45 4.29 4.45 4.29 C 4.934 3.448 5.599 2.715 6.664 2.145 C 7.477 1.764 8.396 1.525 9.29 1.467 L 9.29 1.467 C 10.048 1.473 10.862 1.655 11.581 1.87 C 11.752 1.921 11.938 1.977 12.124 2.041 C 12.129 2.056 12.132 2.072 12.134 2.09 Z"/>
  <path fill="#ececec" d="M 4.523 4.164 C 4.224 4.687 3.797 5.516 3.702 6.253 C 3.652 6.377 3.599 6.488 3.543 6.594 C 3.477 7.386 3.522 8.554 3.798 9.467 L 3.923 9.467 C 3.975 9.685 4.028 9.98 4.086 10.215 C 4.231 10.818 4.277 11.318 4.191 11.783 C 4.188 11.82 4.189 11.859 4.185 11.896 C 4.161 12.128 4.107 12.351 4.019 12.569 C 3.93 12.787 3.806 12.999 3.641 13.21 C 3.598 13.264 3.565 13.329 3.537 13.398 C 3.529 13.418 3.524 13.439 3.517 13.46 C 3.501 13.511 3.487 13.563 3.478 13.617 C 3.473 13.645 3.469 13.673 3.466 13.702 C 3.465 13.705 3.465 13.708 3.465 13.71 C 3.498 13.974 3.621 14.202 3.846 14.249 C 3.846 14.249 5.631 14.311 6.494 14.202 C 6.919 14.143 7.324 14.065 7.816 13.953 C 8.152 13.336 9.021 11.791 9.254 10.834 C 9.362 10.389 9.428 9.934 9.48 9.344 C 8.82 10.051 7.242 11.148 7.145 11.203 C 7.047 11.258 6.855 11.293 6.816 11.293 C 6.606 11.293 6.477 11.181 6.477 10.973 C 6.455 10.799 6.715 10.543 6.969 10.379 C 8.809 8.661 8.463 5.955 9.422 4.484 C 9.062 4.569 7.816 4.933 6.75 4.933 C 6.122 4.933 5.037 4.341 4.523 4.164 Z"/>
 <circle fill="#ececec" cx="6.667" cy="6.533" r=".8" vector-effect="non-scaling-stroke"/>
</svg>
